tools/download-figma-icons/icons/outlined-medium/connector-others.svg

<svg width="24" height="24" viewBox="0 0 24 24" fill="none" xmlns="http://www.w3.org/2000/svg">
<path d="M18.75 7.50234H18V2.2507C18 1.01282 16.9875 0 15.75 0C14.5125 0 13.5 1.01282 13.5 2.2507V7.50234H10.5V2.2507C10.5 1.01282 9.4875 0 8.25 0C7.0125 0 6 1.01282 6 2.2507V7.50234H5.25C4.0125 7.50234 3 8.51516 3 9.75305V15.3198C3 15.8525 3.195 16.3776 3.54 16.7827L6.57 20.3163C6.6825 20.4514 6.75 20.6239 6.75 20.804V22.4995C6.75 23.3248 7.425 24 8.25 24H15.75C16.575 24 17.25 23.3248 17.25 22.4995V20.804C17.25 20.6239 17.3175 20.4514 17.43 20.3163L20.46 16.7827C20.8125 16.3776 21 15.8525 21 15.3198V9.75305C21 8.51516 19.9875 7.50234 18.75 7.50234ZM15 2.2507C15 1.83807 15.3375 1.50047 15.75 1.50047C16.1625 1.50047 16.5 1.83807 16.5 2.2507V7.50234H15V2.2507ZM7.5 2.2507C7.5 1.83807 7.8375 1.50047 8.25 1.50047C8.6625 1.50047 9 1.83807 9 2.2507V7.50234H7.5V2.2507ZM19.5 15.3198C19.5 15.4998 19.4325 15.6724 19.32 15.8074L16.29 19.341C15.9375 19.7462 15.75 20.2713 15.75 20.804V22.4995H8.25V20.804C8.25 20.2713 8.055 19.7462 7.71 19.341L4.68 15.8074C4.5675 15.6724 4.5 15.4998 4.5 15.3198V9.75305C4.5 9.34042 4.8375 9.00281 5.25 9.00281H18.75C19.1625 9.00281 19.5 9.34042 19.5 9.75305V15.3198Z" fill="black"/>
<path d="M15.75 12.0039H8.25C7.8375 12.0039 7.5 12.3414 7.5 12.7539C7.5 13.1664 7.8375 13.5039 8.25 13.5039H15.75C16.1625 13.5039 16.5 13.1664 16.5 12.7539C16.5 12.3414 16.1625 12.0039 15.75 12.0039Z" fill="black"/>
<path d="M15 15.0049H9C8.5875 15.0049 8.25 15.3424 8.25 15.7549C8.25 16.1674 8.5875 16.5049 9 16.5049H15C15.4125 16.5049 15.75 16.1674 15.75 15.7549C15.75 15.3424 15.4125 15.0049 15 15.0049Z" fill="black"/>
</svg>

<svg xmlns="http://www.w3.org/2000/svg" width="24" height="24" fill="none" viewBox="0 0 24 24"><path fill="currentColor" d="M18.75 7.502H18V2.251A2.257 2.257 0 0 0 15.75 0a2.257 2.257 0 0 0-2.25 2.25v5.252h-3V2.251A2.257 2.257 0 0 0 8.25 0 2.257 2.257 0 0 0 6 2.25v5.252h-.75A2.257 2.257 0 0 0 3 9.753v5.567c0 .532.195 1.058.54 1.463l3.03 3.533a.77.77 0 0 1 .18.488V22.5c0 .825.675 1.5 1.5 1.5h7.5c.825 0 1.5-.675 1.5-1.5v-1.696c0-.18.067-.353.18-.488l3.03-3.533c.352-.405.54-.93.54-1.463V9.753a2.257 2.257 0 0 0-2.25-2.25M15 2.251c0-.413.338-.75.75-.75.413 0 .75.337.75.75v5.251H15zm-7.5 0c0-.413.338-.75.75-.75s.75.337.75.75v5.251H7.5zm12 13.069c0 .18-.067.352-.18.487l-3.03 3.534c-.352.405-.54.93-.54 1.463V22.5h-7.5v-1.696c0-.533-.195-1.058-.54-1.463l-3.03-3.534a.77.77 0 0 1-.18-.487V9.753c0-.413.338-.75.75-.75h13.5c.413 0 .75.337.75.75z"/><path fill="currentColor" d="M15.75 12.004h-7.5a.75.75 0 0 0-.75.75c0 .412.338.75.75.75h7.5c.413 0 .75-.338.75-.75a.75.75 0 0 0-.75-.75M15 15.005H9a.75.75 0 0 0-.75.75c0 .412.338.75.75.75h6c.412 0 .75-.338.75-.75a.75.75 0 0 0-.75-.75"/></svg>
